Newaita-dark/apps/64/words.svg

<svg height="64" viewBox="0 0 64 64" width="64" xmlns="http://www.w3.org/2000/svg" xmlns:xlink="http://www.w3.org/1999/xlink"><linearGradient id="a" gradientTransform="matrix(.148824 0 0 .125012 -5.260672 26.87757)" gradientUnits="userSpaceOnUse" x1="254" x2="254" y1="233.5" y2="254.666672"><stop offset="0" stop-opacity=".27451"/><stop offset="1" stop-opacity="0"/></linearGradient><linearGradient id="b"><stop offset="0" stop-opacity=".313726"/><stop offset=".222222" stop-opacity=".27451"/><stop offset="1" stop-opacity="0"/></linearGradient><radialGradient id="c" cx="450.908936" cy="189.579361" gradientTransform="matrix(.00000035 -.156265 -.281277 -.0000002 100.953697 127.190665)" gradientUnits="userSpaceOnUse" r="21.166656" xlink:href="#b"/><radialGradient id="d" cx="450.908936" cy="189.579361" gradientTransform="matrix(-.00000035 .156265 .281277 .0000002 -37.447629 -15.054958)" gradientUnits="userSpaceOnUse" r="21.166656" xlink:href="#b"/><radialGradient id="e" cx="450.908936" cy="189.579361" gradientTransform="matrix(-.00000035 -.156265 .281277 -.0000002 -37.447629 127.190665)" gradientUnits="userSpaceOnUse" r="21.166656" xlink:href="#b"/><radialGradient id="f" cx="450.908936" cy="189.579361" gradientTransform="matrix(.00000035 .156265 -.281277 .0000002 100.953693 -15.054959)" gradientUnits="userSpaceOnUse" r="21.166656" xlink:href="#b"/><linearGradient id="g" gradientUnits="userSpaceOnUse" x1="31.753048" x2="31.753048" y1="56.067868" y2="5.79220799994"><stop offset="0" stop-color="#e0e0e0"/><stop offset="1" stop-color="#eee"/></linearGradient><linearGradient id="h"><stop offset="0" stop-color="#81c784"/><stop offset="1" stop-color="#66bb6a"/></linearGradient><linearGradient id="i" gradientUnits="userSpaceOnUse" x1="51.71899192163" x2="51.71899192163" xlink:href="#h" y1="-32.46584179529" y2="17.80981632959"/><linearGradient id="j" gradientUnits="userSpaceOnUse" x1="34.39913750013" x2="34.39913750013" xlink:href="#h" y1="16.70731950003" y2="44.49123549994"/><path d="m15.214844 56.066406h33.078125v2.648438h-33.078125zm0 0" fill="url(#a)"/><path d="m48.292969 56.066406h5.289062v-2.644531h-5.289062zm0 0" fill="url(#c)"/><path d="m15.214844 56.066406h-5.292969v2.648438h5.292969zm0 0" fill="url(#d)"/><path d="m15.214844 56.066406h-5.292969v-2.644531h5.292969zm0 0" fill="url(#e)"/><path d="m48.292969 56.066406h5.289062v2.648438h-5.289062zm0 0" fill="url(#f)"/><path d="m39.8125 5.792969h-26.582031c-1.464844 0-2.644531 1.179687-2.644531 2.644531v44.984375c0 1.464844 1.179687 2.644531 2.644531 2.644531h37.046875c1.464844 0 2.644531-1.179687 2.644531-2.644531v-35.613281zm0 0" fill="url(#g)"/><path d="m39.8125 5.792969 13.109375 12.015625v-9.371094c0-1.464844-1.179687-2.644531-2.644531-2.644531zm0 0" fill="url(#i)"/><path d="m10.585938 52.761719v.660156c0 1.464844 1.179687 2.644531 2.644531 2.644531h37.046875c1.464844 0 2.644531-1.179687 2.644531-2.644531v-.660156c0 1.464843-1.179687 2.644531-2.644531 2.644531h-37.046875c-1.464844 0-2.644531-1.179688-2.644531-2.644531zm0 0" fill-opacity=".235294"/><path d="m13.230469 5.792969c-1.464844 0-2.644531 1.179687-2.644531 2.644531v1.324219c0-1.464844 1.179687-2.648438 2.644531-2.648438h26.582031l13.109375 12.019531v-1.324218l-13.109375-12.015625zm0 0" fill="#fff"/><path d="m39.8125 5.792969 1.441406 1.320312h9.023438c1.464844 0 2.644531 1.183594 2.644531 2.648438v-1.324219c0-1.464844-1.179687-2.644531-2.644531-2.644531zm0 0" fill="#fff" fill-opacity=".392157"/><path d="m39.8125 5.792969 13.109375 12.015625v-1.101563l-11.90625-10.914062zm0 0" fill-opacity=".235294"/><path d="m1203.664647 175.140764h-803.663454c-44.287112 0-79.952999 35.665888-79.952999 79.952999v1360.027676c0 44.287112 35.665887 79.952999 79.952999 79.952999h1120.05058c44.287111 0 79.952999-35.665887 79.952999-79.952999v-1076.70826zm0 0" fill="none" stroke="#212121" stroke-linecap="round" stroke-linejoin="round" stroke-width="11.338583" transform="scale(.0330761)"/><path d="m318.469588-168.660675 104.864986 96.115821v-74.961591c0-11.717631-9.436599-21.15423-21.15423-21.15423zm0 0" fill="none" stroke="#212121" stroke-linecap="round" stroke-linejoin="round" stroke-width="3" transform="matrix(.125012 0 0 .125012 0 26.877566)"/><path d="m20.507812 22.660156 3.308594 19.847656h2.644532l3.96875-17.863281 3.96875 17.863281h2.648437c4.628906-7.9375 5.953125-16.539062 5.953125-23.15625l-3.96875.664063c0 5.953125-.082031 13.21875-2.648438 19.183594l-3.96875-18.523438-2.644531.664063-3.96875 17.859375-3.308593-15.875 1.984374-2.648438zm0 0" fill="url(#j)"/><path d="m43 19.519531-3.96875.660157c0 5.953124-.082031 13.222656-2.648438 19.183593l-3.96875-18.519531-2.644531.660156-3.96875 17.859375-3.199219-15.359375-.109374.144532 3.308593 15.878906 3.96875-17.863282 2.644531-.660156 3.96875 18.523438c2.566407-5.964844 2.648438-13.230469 2.648438-19.183594l3.964844-.664062c0-.222657.003906-.441407.003906-.660157zm-18.523438 1.324219-3.96875 1.984375.101563.609375 3.074219-1.539062zm0 0" fill="#fff" fill-opacity=".470588"/><path d="m43 20.675781-.019531.003907c-.167969 6.414062-1.609375 14.410156-5.933594 21.828124h-2.648437l-3.96875-17.863281-3.96875 17.863281h-2.644532l-3.105468-18.625-.203126.101563 3.308594 19.84375h2.644532l3.96875-17.859375 3.96875 17.859375h2.648437c4.628906-7.9375 5.953125-16.535156 5.953125-23.152344zm-18.523438 1.324219-1.589843.792969-.394531.53125.214843 1.035156zm0 0" fill-opacity=".235294"/><path d="m164.046834-33.73606 26.466223 158.766089h21.15423l31.746968-142.892605 31.746968 142.892605h21.185477c37.027714-63.493937 47.620453-132.299866 47.620453-185.232311l-31.746969 5.311992c0 47.620453-.656187 105.739903-21.185476 153.454096l-31.746969-148.17335-21.15423 5.311993-31.746968 142.861357-26.466223-126.987873 15.873485-21.185477zm0 0" fill="none" stroke="#212121" stroke-linecap="round" stroke-linejoin="round" stroke-width="3" transform="matrix(.125012 0 0 .125012 0 26.877566)"/></svg>

<?xml version="1.0" encoding="UTF-8"?>
<svg xmlns="http://www.w3.org/2000/svg" xmlns:xlink="http://www.w3.org/1999/xlink" width="64px" height="64px" viewBox="0 0 64 64" version="1.1">
<defs>
<linearGradient id="linear0" gradientUnits="userSpaceOnUse" x1="254" y1="233.5" x2="254" y2="254.666672" gradientTransform="matrix(0.148824,0,0,0.125012,-5.260672,26.87757)">
<stop offset="0" style="stop-color:rgb(0%,0%,0%);stop-opacity:0.27451;"/>
<stop offset="1" style="stop-color:rgb(0%,0%,0%);stop-opacity:0;"/>
</linearGradient>
<radialGradient id="radial0" gradientUnits="userSpaceOnUse" cx="450.908936" cy="189.579361" fx="450.908936" fy="189.579361" r="21.166656" gradientTransform="matrix(0.000000348341,-0.156265,-0.281277,-0.000000203077,100.953697,127.190665)">
<stop offset="0" style="stop-color:rgb(0%,0%,0%);stop-opacity:0.313726;"/>
<stop offset="0.222222" style="stop-color:rgb(0%,0%,0%);stop-opacity:0.27451;"/>
<stop offset="1" style="stop-color:rgb(0%,0%,0%);stop-opacity:0;"/>
</radialGradient>
<radialGradient id="radial1" gradientUnits="userSpaceOnUse" cx="450.908936" cy="189.579361" fx="450.908936" fy="189.579361" r="21.166656" gradientTransform="matrix(-0.000000348341,0.156265,0.281277,0.000000203077,-37.447629,-15.054958)">
<stop offset="0" style="stop-color:rgb(0%,0%,0%);stop-opacity:0.313726;"/>
<stop offset="0.222222" style="stop-color:rgb(0%,0%,0%);stop-opacity:0.27451;"/>
<stop offset="1" style="stop-color:rgb(0%,0%,0%);stop-opacity:0;"/>
</radialGradient>
<radialGradient id="radial2" gradientUnits="userSpaceOnUse" cx="450.908936" cy="189.579361" fx="450.908936" fy="189.579361" r="21.166656" gradientTransform="matrix(-0.000000348341,-0.156265,0.281277,-0.000000203077,-37.447629,127.190665)">
<stop offset="0" style="stop-color:rgb(0%,0%,0%);stop-opacity:0.313726;"/>
<stop offset="0.222222" style="stop-color:rgb(0%,0%,0%);stop-opacity:0.27451;"/>
<stop offset="1" style="stop-color:rgb(0%,0%,0%);stop-opacity:0;"/>
</radialGradient>
<radialGradient id="radial3" gradientUnits="userSpaceOnUse" cx="450.908936" cy="189.579361" fx="450.908936" fy="189.579361" r="21.166656" gradientTransform="matrix(0.000000348341,0.156265,-0.281277,0.000000203077,100.953693,-15.054959)">
<stop offset="0" style="stop-color:rgb(0%,0%,0%);stop-opacity:0.313726;"/>
<stop offset="0.222222" style="stop-color:rgb(0%,0%,0%);stop-opacity:0.27451;"/>
<stop offset="1" style="stop-color:rgb(0%,0%,0%);stop-opacity:0;"/>
</radialGradient>
<linearGradient id="linear1" gradientUnits="userSpaceOnUse" x1="254" y1="233.5" x2="254" y2="-168.666672" gradientTransform="matrix(0.125012,0,0,0.125012,0,26.877566)">
<stop offset="0" style="stop-color:rgb(87.843138%,87.843138%,87.843138%);stop-opacity:1;"/>
<stop offset="1" style="stop-color:rgb(93.333334%,93.333334%,93.333334%);stop-opacity:1;"/>
</linearGradient>
<linearGradient id="linear2" gradientUnits="userSpaceOnUse" x1="413.712219" y1="-474.701691" x2="413.712219" y2="-72.535034" gradientTransform="matrix(0.125012,0,0,0.125012,0,26.877566)">
<stop offset="0" style="stop-color:rgb(50.588238%,78.039217%,51.764709%);stop-opacity:1;"/>
<stop offset="1" style="stop-color:rgb(40.000001%,73.333335%,41.568628%);stop-opacity:1;"/>
</linearGradient>
<linearGradient id="linear3" gradientUnits="userSpaceOnUse" x1="280.458344" y1="-89.291664" x2="280.458344" y2="132.958328" gradientTransform="matrix(0.125012,0,0,0.125012,-0.661521,27.869849)">
<stop offset="0" style="stop-color:rgb(50.588238%,78.039217%,51.764709%);stop-opacity:1;"/>
<stop offset="1" style="stop-color:rgb(40.000001%,73.333335%,41.568628%);stop-opacity:1;"/>
</linearGradient>
</defs>
<g id="surface1">
<path style=" stroke:none;fill-rule:nonzero;fill:url(#linear0);" d="M 15.214844 56.066406 L 48.292969 56.066406 L 48.292969 58.714844 L 15.214844 58.714844 Z M 15.214844 56.066406 "/>
<path style=" stroke:none;fill-rule:nonzero;fill:url(#radial0);" d="M 48.292969 56.066406 L 53.582031 56.066406 L 53.582031 53.421875 L 48.292969 53.421875 Z M 48.292969 56.066406 "/>
<path style=" stroke:none;fill-rule:nonzero;fill:url(#radial1);" d="M 15.214844 56.066406 L 9.921875 56.066406 L 9.921875 58.714844 L 15.214844 58.714844 Z M 15.214844 56.066406 "/>
<path style=" stroke:none;fill-rule:nonzero;fill:url(#radial2);" d="M 15.214844 56.066406 L 9.921875 56.066406 L 9.921875 53.421875 L 15.214844 53.421875 Z M 15.214844 56.066406 "/>
<path style=" stroke:none;fill-rule:nonzero;fill:url(#radial3);" d="M 48.292969 56.066406 L 53.582031 56.066406 L 53.582031 58.714844 L 48.292969 58.714844 Z M 48.292969 56.066406 "/>
<path style=" stroke:none;fill-rule:nonzero;fill:url(#linear1);" d="M 39.8125 5.792969 L 13.230469 5.792969 C 11.765625 5.792969 10.585938 6.972656 10.585938 8.4375 L 10.585938 53.421875 C 10.585938 54.886719 11.765625 56.066406 13.230469 56.066406 L 50.277344 56.066406 C 51.742188 56.066406 52.921875 54.886719 52.921875 53.421875 L 52.921875 17.808594 Z M 39.8125 5.792969 "/>
<path style=" stroke:none;fill-rule:nonzero;fill:url(#linear2);" d="M 39.8125 5.792969 L 52.921875 17.808594 L 52.921875 8.4375 C 52.921875 6.972656 51.742188 5.792969 50.277344 5.792969 Z M 39.8125 5.792969 "/>
<path style=" stroke:none;fill-rule:nonzero;fill:rgb(0%,0%,0%);fill-opacity:0.235294;" d="M 10.585938 52.761719 L 10.585938 53.421875 C 10.585938 54.886719 11.765625 56.066406 13.230469 56.066406 L 50.277344 56.066406 C 51.742188 56.066406 52.921875 54.886719 52.921875 53.421875 L 52.921875 52.761719 C 52.921875 54.226562 51.742188 55.40625 50.277344 55.40625 L 13.230469 55.40625 C 11.765625 55.40625 10.585938 54.226562 10.585938 52.761719 Z M 10.585938 52.761719 "/>
<path style=" stroke:none;fill-rule:nonzero;fill:rgb(100%,100%,100%);fill-opacity:1;" d="M 13.230469 5.792969 C 11.765625 5.792969 10.585938 6.972656 10.585938 8.4375 L 10.585938 9.761719 C 10.585938 8.296875 11.765625 7.113281 13.230469 7.113281 L 39.8125 7.113281 L 52.921875 19.132812 L 52.921875 17.808594 L 39.8125 5.792969 Z M 13.230469 5.792969 "/>
<path style=" stroke:none;fill-rule:nonzero;fill:rgb(100%,100%,100%);fill-opacity:0.392157;" d="M 39.8125 5.792969 L 41.253906 7.113281 L 50.277344 7.113281 C 51.742188 7.113281 52.921875 8.296875 52.921875 9.761719 L 52.921875 8.4375 C 52.921875 6.972656 51.742188 5.792969 50.277344 5.792969 Z M 39.8125 5.792969 "/>
<path style=" stroke:none;fill-rule:nonzero;fill:rgb(0%,0%,0%);fill-opacity:0.235294;" d="M 39.8125 5.792969 L 52.921875 17.808594 L 52.921875 16.707031 L 41.015625 5.792969 Z M 39.8125 5.792969 "/>
<path style="fill:none;stroke-width:11.338583;stroke-linecap:round;stroke-linejoin:round;stroke:rgb(12.941177%,12.941177%,12.941177%);stroke-opacity:1;stroke-miterlimit:4;" d="M 1203.664647 175.140764 L 400.001193 175.140764 C 355.714081 175.140764 320.048194 210.806652 320.048194 255.093763 L 320.048194 1615.121439 C 320.048194 1659.408551 355.714081 1695.074438 400.001193 1695.074438 L 1520.051773 1695.074438 C 1564.338884 1695.074438 1600.004772 1659.408551 1600.004772 1615.121439 L 1600.004772 538.413179 Z M 1203.664647 175.140764 " transform="matrix(0.0330761,0,0,0.0330761,0,0)"/>
<path style="fill:none;stroke-width:3;stroke-linecap:round;stroke-linejoin:round;stroke:rgb(12.941177%,12.941177%,12.941177%);stroke-opacity:1;stroke-miterlimit:4;" d="M 318.469588 -168.660675 L 423.334574 -72.544854 L 423.334574 -147.506445 C 423.334574 -159.224076 413.897975 -168.660675 402.180344 -168.660675 Z M 318.469588 -168.660675 " transform="matrix(0.125012,0,0,0.125012,0,26.877566)"/>
<path style=" stroke:none;fill-rule:nonzero;fill:url(#linear3);" d="M 20.507812 22.660156 L 23.816406 42.507812 L 26.460938 42.507812 L 30.429688 24.644531 L 34.398438 42.507812 L 37.046875 42.507812 C 41.675781 34.570312 43 25.96875 43 19.351562 L 39.03125 20.015625 C 39.03125 25.96875 38.949219 33.234375 36.382812 39.199219 L 32.414062 20.675781 L 29.769531 21.339844 L 25.800781 39.199219 L 22.492188 23.324219 L 24.476562 20.675781 Z M 20.507812 22.660156 "/>
<path style=" stroke:none;fill-rule:nonzero;fill:rgb(100%,100%,100%);fill-opacity:0.470588;" d="M 43 19.519531 L 39.03125 20.179688 C 39.03125 26.132812 38.949219 33.402344 36.382812 39.363281 L 32.414062 20.84375 L 29.769531 21.503906 L 25.800781 39.363281 L 22.601562 24.003906 L 22.492188 24.148438 L 25.800781 40.027344 L 29.769531 22.164062 L 32.414062 21.503906 L 36.382812 40.027344 C 38.949219 34.0625 39.03125 26.796875 39.03125 20.84375 L 42.996094 20.179688 C 42.996094 19.957031 43 19.738281 43 19.519531 Z M 24.476562 20.84375 L 20.507812 22.828125 L 20.609375 23.4375 L 23.683594 21.898438 Z M 24.476562 20.84375 "/>
<path style=" stroke:none;fill-rule:nonzero;fill:rgb(0%,0%,0%);fill-opacity:0.235294;" d="M 43 20.675781 L 42.980469 20.679688 C 42.8125 27.09375 41.371094 35.089844 37.046875 42.507812 L 34.398438 42.507812 L 30.429688 24.644531 L 26.460938 42.507812 L 23.816406 42.507812 L 20.710938 23.882812 L 20.507812 23.984375 L 23.816406 43.828125 L 26.460938 43.828125 L 30.429688 25.96875 L 34.398438 43.828125 L 37.046875 43.828125 C 41.675781 35.890625 43 27.292969 43 20.675781 Z M 24.476562 22 L 22.886719 22.792969 L 22.492188 23.324219 L 22.707031 24.359375 Z M 24.476562 22 "/>
<path style="fill:none;stroke-width:3;stroke-linecap:round;stroke-linejoin:round;stroke:rgb(12.941177%,12.941177%,12.941177%);stroke-opacity:1;stroke-miterlimit:4;" d="M 164.046834 -33.73606 L 190.513057 125.030029 L 211.667287 125.030029 L 243.414255 -17.862576 L 275.161223 125.030029 L 296.3467 125.030029 C 333.374414 61.536092 343.967153 -7.269837 343.967153 -60.202282 L 312.220184 -54.89029 C 312.220184 -7.269837 311.563997 50.849613 291.034708 98.563806 L 259.287739 -49.609544 L 238.133509 -44.297551 L 206.386541 98.563806 L 179.920318 -28.424067 L 195.793803 -49.609544 Z M 164.046834 -33.73606 " transform="matrix(0.125012,0,0,0.125012,0,26.877566)"/>
</g>
</svg>
